X:1
T:Cooley's
T:Luttrell's Pass
C:Joe Mills, Galway (1938)
R:reel
D:Dubliners: 25 Years Celebration.
D:Noel Hill & Tony Linnane
D:Frankie Gavin & Paul Brock: Tribute to Joe Cooley
Z:id:hn-reel-48
M:C|
K:Edor
"Em"EBBA B2EB|~B2AB dBAG|"D"(3FED AD BDAD|(3FED AD "Bm"BAGF| "Em"EBBA B2EB|~B2AB defg|"D"afge dBAF|1 "Bm"DEFD "Em"E2ED:|2 "Bm"DEFD "Em"E2gf|
|:"Em"eB~B2 eBgf|eB~B2 gedB|"D"A2FA DAFA|~A2FA "Bm"defg| "Em"eB~B2 eBgf|eB~B2 defg|"D"afge dBAF|1 "Bm"DEFD "Em"E2gf:|2 "Bm"DEFD "Em"E2ED|]

